svg/toggle-on.svg

<?xml version="1.0" encoding="UTF-8"?>
<svg xmlns="http://www.w3.org/2000/svg" xmlns:xlink="http://www.w3.org/1999/xlink" width="32" height="32" viewBox="0 0 32 32">
<path fill-rule="nonzero" fill="rgb(0%, 0%, 0%)" fill-opacity="1" d="M 23.199219 11.601562 C 20.773438 11.601562 18.804688 13.570312 18.800781 16 C 18.804688 18.429688 20.773438 20.398438 23.199219 20.398438 C 25.628906 20.394531 27.597656 18.429688 27.601562 16 C 27.597656 13.570312 25.628906 11.601562 23.199219 11.601562 M 23.199219 19.601562 C 21.210938 19.597656 19.601562 17.988281 19.601562 16 C 19.601562 14.011719 21.210938 12.402344 23.199219 12.398438 C 25.1875 12.402344 26.796875 14.011719 26.800781 16 C 26.796875 17.988281 25.1875 19.597656 23.199219 19.601562 M 14.917969 13.316406 L 10.398438 17.832031 L 8.28125 15.714844 C 8.121094 15.566406 7.875 15.570312 7.722656 15.722656 C 7.570312 15.875 7.566406 16.121094 7.714844 16.28125 L 10.117188 18.683594 C 10.191406 18.757812 10.292969 18.800781 10.398438 18.800781 C 10.503906 18.800781 10.605469 18.757812 10.679688 18.683594 L 15.480469 13.882812 C 15.554688 13.808594 15.597656 13.707031 15.597656 13.601562 C 15.597656 13.492188 15.554688 13.390625 15.480469 13.316406 C 15.40625 13.242188 15.304688 13.199219 15.199219 13.199219 C 15.09375 13.199219 14.992188 13.242188 14.917969 13.316406 M 23.199219 8.800781 L 8.800781 8.800781 C 4.832031 8.800781 1.601562 12.03125 1.601562 16 C 1.601562 19.96875 4.832031 23.199219 8.800781 23.199219 L 23.199219 23.199219 C 27.167969 23.199219 30.398438 19.96875 30.398438 16 C 30.398438 12.03125 27.167969 8.800781 23.199219 8.800781 M 23.199219 21.601562 L 8.800781 21.601562 C 5.707031 21.597656 3.203125 19.09375 3.199219 16 C 3.203125 12.90625 5.707031 10.402344 8.800781 10.398438 L 23.199219 10.398438 C 26.292969 10.402344 28.796875 12.90625 28.800781 16 C 28.796875 19.09375 26.292969 21.597656 23.199219 21.601562 "/>
</svg>

<svg role="img" viewBox="0 0 32 32" xmlns="http://www.w3.org/2000/svg"><path d="M23.2 11.602A4.403 4.403 0 0 0 18.8 16a4.403 4.403 0 0 0 4.4 4.398A4.406 4.406 0 0 0 27.601 16a4.404 4.404 0 0 0-4.403-4.398m0 8a3.602 3.602 0 0 1 0-7.204A3.61 3.61 0 0 1 26.801 16a3.61 3.61 0 0 1-3.602 3.602m-8.281-6.286-4.52 4.516-2.117-2.117a.4.4 0 0 0-.558.008.4.4 0 0 0-.008.558l2.402 2.403a.4.4 0 0 0 .563 0l4.8-4.801a.4.4 0 0 0-.562-.567m8.281-4.515H8.801C4.832 8.8 1.6 12.03 1.6 16s3.231 7.2 7.2 7.2h14.398c3.969 0 7.2-3.231 7.2-7.2s-3.231-7.2-7.2-7.2m0 12.802H8.801A5.606 5.606 0 0 1 3.199 16a5.606 5.606 0 0 1 5.602-5.602h14.398A5.606 5.606 0 0 1 28.801 16a5.606 5.606 0 0 1-5.602 5.602" fill="rgb(0%, 0%, 0%)"/></svg>
